svg/loguru.svg

<svg viewBox="0 0 20 20" xmlns="http://www.w3.org/2000/svg">
<rect width="100%" height="100%" fill="#6A281A"/>
<path d="M7.29713 7.94786C7.8271 7.9003 8.37163 8.13422 8.70261 8.5516C9.01419 8.93112 9.13358 9.4543 9.02778 9.93185C8.94042 10.3405 8.68708 10.7103 8.33959 10.9423C7.96881 11.1927 7.49319 11.2801 7.05738 11.1772C6.57206 11.0685 6.14886 10.7249 5.94114 10.2735C5.80622 9.98232 5.75866 9.65134 5.80816 9.33297C5.85378 9.02915 5.98773 8.73893 6.18962 8.50695C6.46626 8.18567 6.87296 7.97892 7.29713 7.94786Z" fill="#FDD05D" stroke="#FDD05D" stroke-width="0.0693"/>
<path d="M11.9588 8.03906C12.3218 7.97985 12.7052 8.041 13.0275 8.22251C13.3293 8.38946 13.5759 8.65541 13.7195 8.96893C13.9001 9.3601 13.9175 9.82407 13.7661 10.2279C13.6497 10.5453 13.4303 10.8209 13.1517 11.0112C12.81 11.2451 12.3791 11.3392 11.9704 11.2723C11.6084 11.216 11.2687 11.0325 11.0231 10.7617C10.7533 10.4695 10.598 10.0764 10.5941 9.67944C10.5853 9.25042 10.7542 8.81945 11.0561 8.51467C11.2949 8.26328 11.6171 8.09535 11.9588 8.03906Z" fill="#D7B259" stroke="#D7B259" stroke-width="0.0693"/>
<path d="M10.115 14.6987C10.2217 14.823 10.3431 14.9346 10.4634 15.0452C10.7633 15.317 11.0759 15.5733 11.3913 15.8276C11.6321 16.0237 11.8873 16.2061 12.1717 16.3333C12.5396 16.5022 12.9502 16.5701 13.353 16.5614C13.6956 16.5556 14.0441 16.4556 14.312 16.2362C14.4207 16.3624 14.5498 16.4692 14.6915 16.5565C14.4935 16.6924 14.2868 16.8176 14.1033 16.9729C13.982 17.0749 13.8451 17.1564 13.7044 17.2282C13.3957 17.3835 13.0686 17.501 12.7386 17.6C12.3571 17.7097 11.9669 17.8038 11.5699 17.829C11.4486 17.831 11.3156 17.8426 11.2069 17.7776C11.1555 17.7485 11.1652 17.6776 11.1953 17.6369C11.2593 17.5427 11.336 17.4563 11.3952 17.3583C11.4768 17.2253 11.5573 17.0768 11.5476 16.9166C11.5408 16.8041 11.4709 16.706 11.3797 16.6449C11.2302 16.541 11.0506 16.4915 10.8759 16.4498C10.6352 16.3935 10.3906 16.3634 10.146 16.3362C10.1198 16.3333 10.0936 16.3304 10.0684 16.3275C10.0829 16.3255 10.113 16.3207 10.1276 16.3187C10.1324 16.0382 10.1227 15.7577 10.1227 15.4782C10.1247 15.218 10.0858 14.9579 10.115 14.6987Z" fill="#D68B30" stroke="#D68B30" stroke-width="0.0693"/>
<path d="M16.6421 9.09711C16.5741 8.95734 16.4382 8.87095 16.3033 8.80398C16.0277 8.67197 15.7258 8.61082 15.4462 8.48658C15.1822 8.36719 14.9483 8.16918 14.8105 7.91196C14.7027 7.70618 14.6542 7.47323 14.6532 7.24222C14.6629 7.11021 14.7124 6.98403 14.728 6.85202C14.7513 6.68313 14.7639 6.48997 14.6581 6.34437C14.6678 6.53753 14.6542 6.73457 14.5843 6.91705C14.5261 7.10536 14.4086 7.27425 14.3844 7.47323C14.3679 7.58291 14.3931 7.69842 14.4533 7.7916C14.5765 7.98961 14.7746 8.13133 14.8804 8.34195C14.9405 8.45358 14.9638 8.59141 14.9163 8.71177C14.8852 8.78651 14.8444 8.86125 14.7784 8.91075C14.8435 8.78748 14.9328 8.6545 14.8862 8.5089C14.7862 8.17986 14.4183 8.0362 14.2892 7.72463C14.2184 7.54409 14.2475 7.34122 14.3125 7.1636C14.3892 6.95588 14.4688 6.73943 14.4542 6.51327C14.4416 6.35893 14.3989 6.20169 14.3067 6.07551C14.2359 6.00562 14.1621 5.93671 14.0825 5.87653C14.1359 5.98718 14.2213 6.07842 14.263 6.1949C14.3174 6.32593 14.3203 6.47929 14.2582 6.60839C14.166 6.80737 13.9689 6.93064 13.869 7.1238C13.8262 7.20339 13.8301 7.29463 13.8214 7.38102C13.7971 7.27231 13.8049 7.15486 13.8602 7.05586C13.9505 6.87046 14.1262 6.73457 14.1834 6.53171C14.2194 6.40941 14.1747 6.28031 14.1058 6.17937C13.9117 5.89109 13.5962 5.6921 13.4574 5.365C13.3147 4.99809 13.4234 4.57975 13.6409 4.26623C13.6981 4.19829 13.701 4.10705 13.7243 4.02648C13.7651 3.87603 13.8369 3.73626 13.9214 3.6062C14.0029 3.47419 14.0786 3.33053 14.0951 3.17329C14.1174 2.89666 14.001 2.60643 13.7748 2.43948C13.5816 2.29292 13.3273 2.27642 13.1235 2.1512C12.9294 2.04346 12.7828 1.86875 12.6741 1.6785C12.5974 1.53388 12.4644 1.42711 12.3159 1.36401C12.2557 1.42808 12.1829 1.48049 12.1237 1.54552C12.1101 1.64356 12.1043 1.74645 12.1276 1.84351C12.1548 1.93475 12.2528 1.97164 12.3353 1.99687C12.5829 2.06676 12.8401 2.11917 13.0633 2.25215C13.1837 2.32689 13.2953 2.43172 13.3419 2.56858C13.3875 2.6967 13.3788 2.83745 13.3438 2.96654C13.306 3.11505 13.2186 3.24706 13.1099 3.35383C13.0371 3.42274 12.9536 3.48875 12.8507 3.5004C12.9692 3.45575 13.0643 3.36645 13.1342 3.26259C13.2642 3.08496 13.3167 2.84618 13.2497 2.63361C13.1817 2.48802 13.041 2.39581 12.8935 2.34436C12.6828 2.26671 12.4567 2.25021 12.2392 2.20362C12.1072 2.17547 11.9743 2.10558 11.9073 1.98328C11.8607 1.9066 11.8481 1.8173 11.8355 1.72995C11.4026 1.95513 10.9182 2.06676 10.4329 2.08908C10.2601 2.1182 10.0864 2.14926 9.91068 2.158C9.89709 2.17353 9.86797 2.18323 9.87282 2.21041C9.86797 2.33854 9.87767 2.46763 9.87573 2.59576C9.87185 2.71806 9.8932 2.83842 9.89029 2.96072C9.89126 3.49166 9.90388 4.02357 9.90485 4.55548C9.92912 4.88065 9.91747 5.20678 9.92524 5.53292C9.94174 5.78237 9.93009 6.03377 9.94853 6.28322C9.94659 6.67245 9.96988 7.06265 9.96891 7.45285C9.96988 8.04106 9.99803 8.62829 9.99124 9.2165C9.77964 9.22427 9.56707 9.22039 9.35547 9.2165L9.36129 9.23689C9.68063 9.24077 9.99997 9.233 10.3193 9.2398C10.4426 8.63509 10.8765 8.10609 11.4433 7.86343C11.8714 7.67512 12.3683 7.65183 12.8139 7.79451C13.4137 7.98185 13.9039 8.48076 14.0815 9.08352C14.2145 9.52517 14.1854 10.0144 13.9961 10.4356C13.7554 10.9831 13.2468 11.4063 12.6624 11.5373C12.2179 11.6421 11.7365 11.5829 11.3307 11.3733C11.0415 11.2248 10.791 11.0025 10.6095 10.7326C10.4203 10.456 10.3086 10.1289 10.2824 9.795C9.98444 9.795 9.68549 9.7853 9.3875 9.79986C9.59328 9.82024 9.80196 9.79403 10.0077 9.81151C10.0068 10.0299 10.0272 10.2473 10.0233 10.4647C10.0242 10.6501 10.0272 10.8365 10.031 11.0219C10.0485 11.2005 10.0398 11.3801 10.0427 11.5596C10.0495 11.9887 10.0553 12.4177 10.0563 12.8467C10.0805 13.166 10.0679 13.4864 10.0776 13.8057C10.0805 13.896 10.0941 13.9853 10.0883 14.0755C10.0902 14.1056 10.0747 14.1309 10.0495 14.1454C10.064 14.1542 10.0776 14.1629 10.0932 14.1726C10.4911 13.9396 10.8813 13.695 11.2793 13.4611C11.2472 13.498 11.2142 13.5329 11.1783 13.5659C11.4026 13.7882 11.6442 13.993 11.884 14.1978C12.1907 14.4502 12.5266 14.6715 12.8973 14.819C13.1157 14.8986 13.3497 14.9646 13.5846 14.9394C13.6777 14.9307 13.7593 14.8841 13.8398 14.8414C13.768 14.9326 13.6535 14.9705 13.5428 14.9899C13.7175 15.0316 13.899 15.0326 14.0776 15.018C14.1504 14.7957 14.1864 14.555 14.1359 14.324C14.0611 13.9911 13.8942 13.6902 13.7903 13.367C13.6408 12.9253 13.6263 12.44 13.7447 11.9896C13.8165 11.6936 13.9738 11.4218 14.1834 11.2024C14.461 10.9132 14.8153 10.7123 15.1774 10.5492C15.2696 10.5113 15.3618 10.4725 15.453 10.4327C15.6394 10.3599 15.8384 10.3153 16.0063 10.2036C16.1403 10.1241 16.2723 10.0396 16.3839 9.93089C16.5023 9.81539 16.5829 9.66688 16.6392 9.51255C16.6887 9.38054 16.7071 9.22718 16.6421 9.09711Z" fill="#D68B30"/>
<path d="M10.1216 15.4771C10.1255 15.2179 10.0857 14.9578 10.1148 14.6986C10.108 14.6899 10.0925 14.6705 10.0857 14.6617C9.88379 14.9025 9.64502 15.1102 9.40915 15.316C9.20532 15.4936 8.99566 15.6654 8.78406 15.8343C8.67437 15.9255 8.56275 16.0148 8.44336 16.0944C8.13664 16.308 7.79012 16.4691 7.42031 16.5361C7.09902 16.5943 6.76415 16.6127 6.4419 16.5448C6.22739 16.4982 6.02064 16.406 5.85175 16.2652C5.7838 16.2148 5.72848 16.1507 5.67218 16.0886C5.42952 15.8382 5.23733 15.545 5.06359 15.2441C4.98302 15.1073 4.91411 14.9646 4.82772 14.8316C4.79957 14.9102 4.76948 14.9908 4.76172 15.0752C4.77045 15.1752 4.7986 15.2732 4.82578 15.3693C4.88596 15.6916 4.97623 16.008 5.083 16.3177C5.16551 16.539 5.2548 16.7661 5.41787 16.9418C5.57706 17.1058 5.77604 17.2233 5.98279 17.3174C6.3293 17.4737 6.70009 17.5708 7.07282 17.6406C7.58337 17.7338 8.10364 17.7785 8.62293 17.7503C8.75203 17.7358 8.88694 17.7358 9.00633 17.6795C9.1034 17.6329 9.14222 17.5183 9.13834 17.4164C9.13252 17.1893 9.05001 16.9728 9.04807 16.7457C9.0471 16.637 9.07525 16.5205 9.15484 16.4429C9.24414 16.3545 9.37227 16.3225 9.4936 16.3089C9.68481 16.2837 9.877 16.3099 10.0672 16.3274C10.0818 16.3254 10.1119 16.3206 10.1265 16.3186C10.1313 16.0381 10.1216 15.7576 10.1216 15.4771Z" fill="#F99E2B" stroke="#F99E2B" stroke-width="0.0693"/>
<path d="M10.0792 13.8067C10.0704 13.4874 10.0821 13.1671 10.0578 12.8477C10.0568 12.4187 10.051 11.9897 10.0442 11.5606C10.0403 11.3811 10.0491 11.2015 10.0326 11.0229C10.0287 10.8375 10.0258 10.6512 10.0248 10.4658C10.0287 10.2474 10.0083 10.0299 10.0093 9.81252C9.80252 9.79505 9.5948 9.82125 9.38903 9.80087L9.38806 9.80378C9.35506 10.1105 9.25314 10.4114 9.08231 10.6696C8.86003 11.0113 8.52807 11.2811 8.14661 11.4257C7.67585 11.6063 7.13423 11.5936 6.67317 11.3898C6.19853 11.184 5.81416 10.7793 5.63459 10.294C5.39678 9.67275 5.50743 8.93312 5.92287 8.41285C6.27618 7.95374 6.84401 7.66934 7.42348 7.66643C7.37009 7.66352 7.31768 7.6577 7.26526 7.65187C7.38757 7.63052 7.51278 7.63149 7.63411 7.65284C7.58169 7.6577 7.52831 7.66352 7.47589 7.66643C7.92724 7.66837 8.37471 7.83726 8.71637 8.13137C9.04154 8.40897 9.27352 8.79626 9.35603 9.21654C9.56763 9.21946 9.7802 9.22334 9.9918 9.21654C9.99859 8.62834 9.96947 8.0411 9.96947 7.45289C9.97044 7.06172 9.94715 6.67249 9.94812 6.2823C9.93065 6.03284 9.94229 5.78145 9.92579 5.53199C9.91706 5.20683 9.9287 4.87972 9.90444 4.55455C9.90444 4.02361 9.89085 3.4917 9.88988 2.96076C9.89279 2.83943 9.87241 2.7181 9.87532 2.59677C9.87726 2.46768 9.86755 2.33955 9.87241 2.21046C9.86755 2.18328 9.89764 2.1726 9.9122 2.15707C9.90444 2.15804 9.88697 2.15901 9.8792 2.15998C9.44435 2.18037 9.00465 2.13669 8.58922 2.00565C8.18349 1.87947 7.79426 1.66398 7.52346 1.33105C7.43901 1.39415 7.34874 1.45627 7.29438 1.54848C7.2245 1.66107 7.15752 1.77852 7.06434 1.87461C6.93331 2.0173 6.7615 2.11824 6.57999 2.18134C6.47516 2.41332 6.47128 2.68898 6.57611 2.92097C6.71588 3.23254 6.96242 3.482 7.10608 3.7926C7.22062 4.02653 7.25071 4.30316 7.16917 4.55164C7.10608 4.76324 6.96631 4.94281 6.81003 5.0952C6.67026 5.23789 6.50525 5.36601 6.41887 5.5514C6.34607 5.70671 6.35577 5.89889 6.44604 6.04449C6.54214 6.2027 6.69938 6.31239 6.86148 6.39586C7.05949 6.48225 7.27885 6.54049 7.49628 6.50943C7.61372 6.49681 7.7205 6.4376 7.80494 6.35607C7.70691 6.49778 7.5254 6.54631 7.36233 6.55408C7.12452 6.5599 6.8838 6.49778 6.679 6.37742C6.49555 6.27841 6.33248 6.11923 6.27424 5.91345C6.23347 5.75039 6.249 5.57082 6.33054 5.42231C6.4771 5.1447 6.75374 4.96514 6.89836 4.68753C7.00416 4.48855 7.0294 4.24492 6.94495 4.03332C6.84207 3.76639 6.63629 3.55965 6.47322 3.33058C6.34898 3.16071 6.2393 2.97338 6.19659 2.76469C6.16165 2.63171 6.1665 2.49388 6.17038 2.35799C5.95975 2.50747 5.83939 2.76275 5.83648 3.019C5.82872 3.20342 5.9151 3.37425 6.00828 3.52762C6.08011 3.64021 6.14514 3.75766 6.18785 3.88481C6.26259 4.09932 6.27715 4.3284 6.27424 4.55358C6.27812 4.88263 6.216 5.21847 6.05196 5.50675C5.89957 5.78047 5.66177 5.99887 5.39484 6.15805C5.31719 6.20076 5.25798 6.27162 5.22789 6.35509C5.16868 6.51525 5.19003 6.689 5.21915 6.85303C5.24148 6.98795 5.29389 7.11996 5.27836 7.25876C5.26089 7.59266 5.13082 7.9285 4.87846 8.15466C4.64453 8.38276 4.32616 8.48468 4.02041 8.58078C3.80687 8.65454 3.58265 8.72346 3.40891 8.87391C3.29825 8.96612 3.23613 9.11172 3.25263 9.25634C3.2701 9.42135 3.34484 9.57471 3.4322 9.71351C3.57877 9.93579 3.82046 10.0649 4.04371 10.1969C4.19027 10.2833 4.33587 10.3755 4.46302 10.491C4.58047 10.6288 4.71345 10.754 4.82798 10.8948C5.16577 11.2976 5.44628 11.7752 5.49967 12.3071C5.55888 12.8458 5.35893 13.3796 5.05414 13.8154C4.97552 13.9212 4.95223 14.0552 4.93378 14.1823C5.01046 14.1348 5.08812 14.0795 5.18227 14.0824C5.13471 14.1125 5.08326 14.1338 5.0357 14.1649C4.92505 14.2454 4.87069 14.3978 4.9134 14.5298C4.95805 14.6968 5.10559 14.8104 5.25798 14.8744C5.45793 14.9579 5.67147 15.0093 5.88792 15.0278C5.89084 15.0084 5.89375 14.9889 5.89666 14.9705C5.75883 14.9356 5.61906 14.8696 5.53849 14.7482C5.59673 14.8016 5.65691 14.855 5.73165 14.8841C5.9549 14.9754 6.20241 14.9744 6.43925 14.955C6.90322 14.9132 7.35359 14.7706 7.77582 14.5784C8.07187 14.3988 8.33588 14.1707 8.59407 13.9416C8.72996 13.8203 8.87265 13.7038 8.98815 13.5621C8.9503 13.531 8.91535 13.4961 8.88332 13.4602C9.27546 13.6834 9.66372 13.9154 10.0529 14.1445C10.0782 14.129 10.0937 14.1047 10.0918 14.0746C10.0957 13.9863 10.083 13.897 10.0792 13.8067Z" fill="#F99E2B" stroke="#F99E2B" stroke-width="0.0693"/>
</svg>

<svg xmlns="http://www.w3.org/2000/svg" viewBox="0 0 20 20">
  <rect width="100%" height="100%" fill="#6A281A"/>
  <path fill="#FDD05D" stroke="#FDD05D" stroke-width=".07" d="M7.3 7.95a1.64 1.64 0 1 1 .26 3.26 1.64 1.64 0 0 1-.26-3.26Z"/>
  <path fill="#D7B259" stroke="#D7B259" stroke-width=".07" d="M11.96 8.04a1.65 1.65 0 0 1 1.76.93 1.65 1.65 0 0 1-.57 2.04 1.64 1.64 0 1 1-1.2-2.97Z"/>
  <path fill="#D68B30" stroke="#D68B30" stroke-width=".07" d="M10.12 14.7c.1.12.22.23.34.35.3.27.62.52.93.78.24.2.5.38.78.5.37.17.78.24 1.18.23.35 0 .7-.1.96-.32.11.12.24.23.38.32-.2.13-.4.26-.59.41-.12.1-.25.19-.4.26a5.94 5.94 0 0 1-2.13.6c-.12 0-.25.01-.36-.05-.05-.03-.04-.1-.01-.14l.2-.28c.08-.13.16-.28.15-.44a.36.36 0 0 0-.17-.28c-.15-.1-.33-.15-.5-.19a6.2 6.2 0 0 0-.81-.12l.06-.01v-.84c0-.26-.04-.52-.02-.78Z"/>
  <path fill="#D68B30" d="M16.64 9.1a.7.7 0 0 0-.34-.3c-.27-.13-.57-.19-.85-.31-.27-.12-.5-.32-.64-.58-.1-.2-.16-.44-.16-.67.01-.13.06-.26.08-.39.02-.17.03-.36-.07-.5 0 .19 0 .38-.08.57-.05.19-.17.35-.2.55-.01.11.01.23.07.32.13.2.32.34.43.55a.45.45 0 0 1-.1.57c.06-.12.15-.26.1-.4-.1-.33-.46-.47-.6-.79a.8.8 0 0 1 .03-.56c.08-.2.16-.42.14-.65a.86.86 0 0 0-.14-.43 2.29 2.29 0 0 0-.23-.2c.06.1.14.2.18.31.06.14.06.29 0 .42-.1.2-.3.32-.4.51-.03.08-.03.17-.04.26a.46.46 0 0 1 .04-.32c.1-.19.27-.33.32-.53.04-.12 0-.25-.07-.35-.2-.29-.51-.49-.65-.81-.15-.37-.04-.79.18-1.1.06-.07.06-.16.08-.24.05-.15.12-.3.2-.42.08-.14.16-.28.18-.44a.84.84 0 0 0-.33-.73c-.19-.15-.44-.16-.65-.29-.2-.1-.34-.28-.45-.47a.72.72 0 0 0-.35-.32l-.2.19a.8.8 0 0 0 0 .3c.03.08.13.12.22.15.24.07.5.12.72.25.12.08.24.18.28.32.05.13.04.27 0 .4a.84.84 0 0 1-.23.38c-.07.07-.16.14-.26.15a.61.61 0 0 0 .28-.24.72.72 0 0 0 .12-.63.6.6 0 0 0-.36-.29c-.2-.07-.43-.09-.65-.14a.48.48 0 0 1-.33-.22c-.05-.07-.06-.16-.07-.25-.44.23-.92.34-1.4.36-.18.03-.35.06-.53.07-.01.01-.04.02-.04.05v.39l.02.36.01 1.6c.03.32.02.65.03.97.01.25 0 .5.02.75l.02 1.17c0 .6.03 1.18.02 1.77h-.63v.02h.96a1.95 1.95 0 1 1-.04.55l-.9.01c.21.02.42 0 .63.01 0 .22.02.44.01.65l.01.56c.02.18.01.36.01.54l.02 1.29c.02.32 0 .64.02.96v.27c.01.03 0 .05-.03.07l.04.02 1.19-.7a1.3 1.3 0 0 1-.1.1c.22.22.46.42.7.63.31.25.65.47 1.02.62.22.08.45.14.68.12.1 0 .18-.06.26-.1-.07.1-.19.13-.3.15.18.04.36.04.54.03.07-.22.1-.46.06-.7-.08-.33-.25-.63-.35-.95a2.41 2.41 0 0 1-.05-1.38c.08-.3.23-.57.44-.79.28-.29.64-.49 1-.65l.27-.12c.19-.07.39-.11.56-.23.13-.08.26-.16.37-.27.12-.11.2-.26.26-.42.05-.13.07-.28 0-.41Z"/>
  <path fill="#F99E2B" stroke="#F99E2B" stroke-width=".07" d="M10.12 15.48c0-.26-.03-.52 0-.78l-.03-.04c-.2.24-.44.45-.68.66a18.86 18.86 0 0 1-.97.77 2.62 2.62 0 0 1-2 .45 1.38 1.38 0 0 1-.59-.27l-.18-.18a4.24 4.24 0 0 1-.6-.85c-.09-.13-.16-.28-.24-.4-.03.07-.06.15-.07.24a6.68 6.68 0 0 0 .32 1.24c.09.22.17.45.34.62.16.17.36.28.56.38a6.64 6.64 0 0 0 2.64.43c.13-.01.27-.01.39-.07.1-.05.13-.16.13-.26 0-.23-.09-.45-.1-.67 0-.11.04-.23.11-.3a.56.56 0 0 1 .34-.14c.2-.03.39 0 .58.02l.06-.01v-.84Z"/>
  <path fill="#F99E2B" stroke="#F99E2B" stroke-width=".07" d="M10.08 13.8c-.01-.31 0-.63-.02-.95 0-.43 0-.86-.02-1.29v-.54l-.02-.55-.01-.66h-.62a1.95 1.95 0 0 1-2.72 1.58 1.95 1.95 0 0 1 .75-3.72l-.15-.02c.12-.02.24-.02.36 0l-.15.02a1.93 1.93 0 0 1 1.88 1.55h.63l-.02-1.77-.02-1.17c-.02-.25 0-.5-.02-.75-.01-.32 0-.65-.03-.98L9.9 2.96c0-.12-.02-.24-.01-.36V2.2c-.01-.03.02-.04.03-.05h-.03c-.44.02-.88-.02-1.3-.15a2.2 2.2 0 0 1-1.06-.68c-.08.06-.17.13-.23.22-.07.11-.13.23-.23.32-.13.15-.3.25-.48.31a.9.9 0 0 0 0 .74c.14.31.38.56.53.87.11.24.14.51.06.76-.06.21-.2.4-.36.55-.14.14-.3.27-.4.45a.53.53 0 0 0 .04.5 1 1 0 0 0 .41.35c.2.08.42.14.64.1a.53.53 0 0 0 .3-.14c-.1.14-.27.19-.44.2a1.3 1.3 0 0 1-.68-.18.8.8 0 0 1-.4-.47.68.68 0 0 1 .05-.49c.15-.28.42-.45.57-.73.1-.2.13-.45.04-.66-.1-.26-.3-.47-.47-.7a1.48 1.48 0 0 1-.27-.57c-.04-.13-.03-.27-.03-.4a.83.83 0 0 0-.33.66c-.01.18.08.35.17.5.07.12.14.24.18.36.07.22.09.45.08.67 0 .33-.05.67-.22.96-.15.27-.39.49-.66.65a.37.37 0 0 0-.16.2.95.95 0 0 0-.01.5c.02.13.07.26.06.4-.02.33-.15.67-.4.9-.24.22-.55.32-.86.42-.21.07-.44.14-.61.3a.44.44 0 0 0-.16.38c.02.16.1.31.18.45.15.23.39.35.61.49.15.08.3.18.42.3.12.13.25.25.37.4.34.4.62.88.67 1.4.06.55-.14 1.08-.45 1.52a.8.8 0 0 0-.12.36c.08-.05.16-.1.25-.1l-.14.08a.34.34 0 0 0-.13.37c.05.17.2.28.35.34.2.09.41.14.63.16v-.06a.6.6 0 0 1-.35-.22c.06.05.12.1.2.13.21.1.46.1.7.07.46-.04.91-.18 1.34-.37.3-.18.56-.4.81-.64.14-.12.28-.24.4-.38a.95.95 0 0 1-.1-.1l1.16.68a.07.07 0 0 0 .04-.07l-.01-.26Z"/>
</svg>
